infra/web/assets/tree.svg

<?xml version="1.0" encoding="UTF-8"?>
<!--Generator: Apple Native CoreSVG 326-->
<!DOCTYPE svg
PUBLIC "-//W3C//DTD SVG 1.1//EN"
       "http://www.w3.org/Graphics/SVG/1.1/DTD/svg11.dtd">
<svg version="1.1" xmlns="http://www.w3.org/2000/svg" xmlns:xlink="http://www.w3.org/1999/xlink" viewBox="0 0 64.2773 64.5898">
 <g>
  <rect height="64.5898" opacity="0" width="64.2773" x="0" y="0"/>
  <path d="M25.9766 51.0156C27.8125 51.0156 29.8438 50.7422 31.9531 49.9609C34.0625 50.7422 36.0938 51.0156 37.9297 51.0156C43.0859 51.0156 46.9141 48.6719 48.2812 47.4219C50.4102 48.4961 52.3828 48.9844 54.2188 48.9844C59.9609 48.9844 63.9062 44.9219 63.9062 38.9844C63.9062 35.9375 62.6562 32.7734 59.7656 29.9023C62.0703 27.5391 63.0078 24.7852 63.0078 21.9531C63.0078 16.0352 58.3984 10.6641 52.7539 10.0586C52.5391 4.29688 46.3086 0.175781 40.1758 0.175781C37.0508 0.175781 34.1211 1.21094 31.9531 3.49609C29.7852 1.21094 26.875 0.175781 23.7305 0.175781C17.5977 0.175781 11.3672 4.29688 11.1719 10.0586C5.50781 10.6641 0.898438 16.0352 0.898438 21.9531C0.898438 24.7852 1.83594 27.5391 4.14062 29.9023C1.25 32.7734 0 35.9375 0 38.9844C0 44.9219 3.94531 48.9844 9.6875 48.9844C11.5234 48.9844 13.4961 48.4961 15.625 47.4219C16.9922 48.6719 20.8203 51.0156 25.9766 51.0156ZM25.9766 47.8906C20.1562 47.8906 17.2266 44.7656 16.1719 43.5156C13.6133 45.293 12.0117 45.8398 9.6875 45.8398C5.70312 45.8398 3.14453 43.1641 3.14453 38.9844C3.14453 36.2891 4.14062 34.1016 7.51953 31.0156C8.20312 30.4102 8.125 29.4141 7.55859 28.8477C4.72656 26.1523 4.02344 24.1406 4.02344 21.582C4.02344 16.6211 7.87109 12.8125 13.4375 13.125C14.1992 13.1641 14.4531 12.6562 14.375 12.1094C13.6523 7.20703 17.9492 3.30078 23.9062 3.30078C27.3828 3.30078 29.7852 4.64844 31.9531 7.14844C34.1211 4.64844 36.5625 3.30078 40 3.30078C45.957 3.30078 50.2539 7.20703 49.5312 12.1094C49.4531 12.6562 49.707 13.1641 50.4883 13.125C56.0352 12.8125 59.8828 16.6211 59.8828 21.582C59.8828 24.1406 59.1797 26.1523 56.3477 28.8477C55.7812 29.4141 55.7031 30.4102 56.3867 31.0156C59.7656 34.1016 60.7617 36.2891 60.7617 38.9844C60.7617 43.1641 58.2031 45.8398 54.2188 45.8398C51.8945 45.8398 50.293 45.293 47.7344 43.5156C46.6797 44.7656 43.75 47.8906 37.9297 47.8906C36.0352 47.8906 34.2969 47.5977 31.9531 46.6211C29.6094 47.5977 27.8711 47.8906 25.9766 47.8906Z" fill="#32d74b"/>
  <path d="M31.9531 64.5898C34.1602 64.5898 35.6641 63.8867 35.6641 62.8125C35.6641 61.3086 35.2344 57.4219 35.2344 53.457C35.2344 47.9492 40.5664 37.9883 41.6992 36.3281L38.6719 34.0625C37.3047 36.543 35.6641 39.4922 33.8477 43.5938L33.8477 34.7852L30.0586 34.7852L30.0586 43.6133C28.2422 39.5117 26.6016 36.5234 25.2344 34.0625L22.2266 36.3281C23.3398 37.9883 28.6719 47.9492 28.6719 53.457C28.6719 57.4219 28.2422 61.3086 28.2422 62.8125C28.2422 63.8867 29.7461 64.5898 31.9531 64.5898Z" fill="#ac8e68"/>
  <path d="M18.7305 39.1992C23.457 39.1992 25.957 37.0117 27.0508 33.8281C28.4375 34.8242 29.9805 35.3516 31.9531 35.3516C33.9258 35.3516 35.4688 34.8242 36.8555 33.8281C37.9492 37.0117 40.4492 39.1992 45.1758 39.1992C45.918 39.1992 46.543 38.5938 46.543 37.8125C46.543 37.0703 45.918 36.4453 45.1758 36.4453C40.8594 36.3867 39.1797 33.9844 38.9648 30.7031C38.9062 29.5508 37.3242 29.0625 36.6016 30.0586C35.5469 31.4453 34.1211 32.4023 31.9531 32.4023C29.7852 32.4023 28.3594 31.4453 27.3047 30.0586C26.582 29.0625 25 29.5508 24.9414 30.7031C24.7266 33.9844 23.0469 36.3867 18.7305 36.4453C17.9883 36.4453 17.3633 37.0703 17.3633 37.8125C17.3633 38.5938 17.9883 39.1992 18.7305 39.1992Z" fill="#32d74b"/>
 </g>
</svg>

<svg width="64" height="65" xmlns="http://www.w3.org/2000/svg">
 <g>
  <title>Layer 1</title>
  <g id="svg_1">
   <rect id="svg_3" height="64.5898" opacity="0" width="64.2773" x="0" y="0"/>
   <path id="svg_4" d="m25.9766,51.0156c1.8359,0 3.8672,-0.2734 5.9765,-1.0547c2.1094,0.7813 4.1407,1.0547 5.9766,1.0547c5.1562,0 8.9844,-2.3437 10.3515,-3.5937c2.129,1.0742 4.1016,1.5625 5.9376,1.5625c5.7421,0 9.6874,-4.0625 9.6874,-10c0,-3.0469 -1.25,-6.211 -4.1406,-9.0821c2.3047,-2.3632 3.2422,-5.1171 3.2422,-7.9492c0,-5.9179 -4.6094,-11.289 -10.2539,-11.8945c-0.2148,-5.76172 -6.4453,-9.88282 -12.5781,-9.88282c-3.125,0 -6.0547,1.03516 -8.2227,3.32031c-2.1679,-2.28515 -5.0781,-3.32031 -8.2226,-3.32031c-6.1328,0 -12.3633,4.1211 -12.5586,9.88282c-5.66409,0.6055 -10.27346,5.9766 -10.27346,11.8945c0,2.8321 0.9375,5.586 3.24218,7.9492c-2.89062,2.8711 -4.14062,6.0352 -4.14062,9.0821c0,5.9375 3.94531,10 9.6875,10c1.8359,0 3.8086,-0.4883 5.9375,-1.5625c1.3672,1.25 5.1953,3.5937 10.3516,3.5937zm0,-3.125c-5.8204,0 -8.75,-3.125 -9.8047,-4.375c-2.5586,1.7774 -4.1602,2.3242 -6.4844,2.3242c-3.98438,0 -6.54297,-2.6757 -6.54297,-6.8554c0,-2.6953 0.99609,-4.8828 4.375,-7.9688c0.68359,-0.6054 0.60547,-1.6015 0.03906,-2.1679c-2.83203,-2.6954 -3.53515,-4.7071 -3.53515,-7.2657c0,-4.9609 3.84765,-8.7695 9.41406,-8.457c0.7617,0.0391 1.0156,-0.4688 0.9375,-1.0156c-0.7227,-4.90237 3.5742,-8.80862 9.5312,-8.80862c3.4766,0 5.879,1.34766 8.0469,3.84766c2.168,-2.5 4.6094,-3.84766 8.0469,-3.84766c5.957,0 10.2539,3.90625 9.5312,8.80862c-0.0781,0.5468 0.1758,1.0547 0.9571,1.0156c5.5469,-0.3125 9.3945,3.4961 9.3945,8.457c0,2.5586 -0.7031,4.5703 -3.5351,7.2657c-0.5665,0.5664 -0.6446,1.5625 0.039,2.1679c3.3789,3.086 4.375,5.2735 4.375,7.9688c0,4.1797 -2.5586,6.8554 -6.5429,6.8554c-2.3243,0 -3.9258,-0.5468 -6.4844,-2.3242c-1.0547,1.25 -3.9844,4.375 -9.8047,4.375c-1.8945,0 -3.6328,-0.2929 -5.9766,-1.2695" fill="#ffb4f1"/>
   <path id="svg_5" d="m31.9531,64.5898c2.2071,0 3.711,-0.7031 3.711,-1.7773c0,-1.5039 -0.4297,-5.3906 -0.4297,-9.3555c0,-5.5078 5.332,-15.4687 6.4648,-17.1289l-3.0273,-2.2656c-1.3672,2.4805 -3.0078,5.4297 -4.8242,9.5313l0,-8.8086l-3.7891,0l0,8.8281c-1.8164,-4.1016 -3.457,-7.0899 -4.8242,-9.5508l-3.0078,2.2656c1.1132,1.6602 6.4453,11.6211 6.4453,17.1289c0,3.9649 -0.4297,7.8516 -0.4297,9.3555c0,1.0742 1.5039,1.7773 3.7109,1.7773z" fill="#ac8e68"/>
   <path id="svg_6" d="m18.7305,39.1992c4.7265,0 7.2265,-2.1875 8.3203,-5.3711c1.3867,0.9961 2.9297,1.5235 4.9023,1.5235c1.9727,0 3.5157,-0.5274 4.9024,-1.5235c1.0937,3.1836 3.5937,5.3711 8.3203,5.3711c0.7422,0 1.3672,-0.6054 1.3672,-1.3867c0,-0.7422 -0.625,-1.3672 -1.3672,-1.3672c-4.3164,-0.0586 -5.9961,-2.4609 -6.211,-5.7422c-0.0586,-1.1523 -1.6406,-1.6406 -2.3632,-0.6445c-1.0547,1.3867 -2.4805,2.3437 -4.6485,2.3437c-2.1679,0 -3.5937,-0.957 -4.6484,-2.3437c-0.7227,-0.9961 -2.3047,-0.5078 -2.3633,0.6445c-0.2148,3.2813 -1.8945,5.6836 -6.2109,5.7422c-0.7422,0 -1.3672,0.625 -1.3672,1.3672c0,0.7813 0.625,1.3867 1.3672,1.3867z" fill="#ffb4f1"/>
  </g>
 </g>

</svg>
